svgs/sharp-regular/file-chart-column.svg

<svg xmlns="http://www.w3.org/2000/svg" viewBox="0 0 384 512"><!--! Font Awesome Pro 6.6.0 by @fontawesome - https://fontawesome.com License - https://fontawesome.com/license (Commercial License) Copyright 2024 Fonticons, Inc. --><path d="M48 464L48 48l176 0 0 112 112 0 0 304L48 464zM256 0L48 0 0 0 0 48 0 464l0 48 48 0 288 0 48 0 0-48 0-336L256 0zM216 280l0-24-48 0 0 24 0 128 0 24 48 0 0-24 0-128zm88 32l0-24-48 0 0 24 0 96 0 24 48 0 0-24 0-96zM128 344l0-24-48 0 0 24 0 64 0 24 48 0 0-24 0-64z"/></svg>

<svg xmlns="http://www.w3.org/2000/svg" viewBox="0 0 384 512"><!--! Font Awesome Pro 6.4.0 by @fontawesome - https://fontawesome.com License - https://fontawesome.com/license (Commercial License) Copyright 2023 Fonticons, Inc. --><path d="M48 464V48H224V160H336V464H48zM256 0H48 0V48 464v48H48 336h48V464 128L256 0zM216 280V256H168v24V408v24h48V408 280zm88 32V288H256v24 96 24h48V408 312zM128 344V320H80v24 64 24h48V408 344z"/></svg>
